X:1615
T:Dougie McDonald's #1
O:england
M:2/2
L:1/8
C:Dougie MacDonald
S:James Kelly & Zan McLeod, _The Ring Sessions_
R:Reel
K:Em
BEGB C2DC|BEGB ADFA|BEGB C2DC|Bdgf edBA|
BEGB C2DC|BEGB ADFA|BEGB C2DC|1 Bdgf e3d:||2 Bdgf e2EF|
||:GEB,E AFDF|BGEG cGEG|cGEG BGEG|AFGF GEFD|
GEB,E AFDF|BGEG cGEG|c2dc BAGB|AFDF E3F:||


